src/assets/svgs/category.svg

<svg width="23" height="23" viewBox="0 0 23 23" fill="none" xmlns="http://www.w3.org/2000/svg">
<path fill-rule="evenodd" clip-rule="evenodd" d="M6.76516 0.25H3.34771C1.49725 0.25 0 1.76025 0 3.61996V7.06708C0 8.92603 1.49757 10.437 3.34771 10.437H6.76516C8.6153 10.437 10.1129 8.92603 10.1129 7.06708V3.61996C10.1129 1.76025 8.61562 0.25 6.76516 0.25ZM3.34771 1.81977H6.76516C7.74561 1.81977 8.54311 2.62419 8.54311 3.61996V7.06708C8.54311 8.0622 7.74519 8.86728 6.76516 8.86728H3.34771C2.36768 8.86728 1.56977 8.0622 1.56977 7.06708V3.61996C1.56977 2.62419 2.36726 1.81977 3.34771 1.81977ZM19.1534 0.25H15.7348C13.8844 0.25 12.3871 1.76025 12.3871 3.61996V7.06708C12.3871 8.92603 13.8847 10.437 15.7348 10.437H19.1534C21.0026 10.437 22.5 8.92582 22.5 7.06708V3.61996C22.5 1.76047 21.003 0.25 19.1534 0.25ZM15.7348 1.81977H19.1534C20.1329 1.81977 20.9302 2.6243 20.9302 3.61996V7.06708C20.9302 8.06208 20.1324 8.86728 19.1534 8.86728H15.7348C14.7548 8.86728 13.9569 8.0622 13.9569 7.06708V3.61996C13.9569 2.62419 14.7544 1.81977 15.7348 1.81977ZM3.34771 12.563H6.76516C8.61584 12.563 10.1129 14.0734 10.1129 15.934V19.38C10.1129 21.2397 8.61562 22.75 6.76516 22.75H3.34771C1.49725 22.75 0 21.2397 0 19.38V15.934C0 14.0734 1.49703 12.563 3.34771 12.563ZM6.76516 14.1327H3.34771C2.36715 14.1327 1.56977 14.9373 1.56977 15.934V19.38C1.56977 20.3758 2.36726 21.1802 3.34771 21.1802H6.76516C7.74561 21.1802 8.54311 20.3758 8.54311 19.38V15.934C8.54311 14.9373 7.74572 14.1327 6.76516 14.1327ZM19.1534 12.563H15.7348C13.8842 12.563 12.3871 14.0734 12.3871 15.934V19.38C12.3871 21.2397 13.8844 22.75 15.7348 22.75H19.1534C21.003 22.75 22.5 21.2395 22.5 19.38V15.934C22.5 14.0736 21.0032 12.563 19.1534 12.563ZM15.7348 14.1327H19.1534C20.133 14.1327 20.9302 14.9374 20.9302 15.934V19.38C20.9302 20.3757 20.1329 21.1802 19.1534 21.1802H15.7348C14.7544 21.1802 13.9569 20.3758 13.9569 19.38V15.934C13.9569 14.9373 14.7543 14.1327 15.7348 14.1327Z" />
</svg>

<svg width="23" height="23" fill="none" xmlns="http://www.w3.org/2000/svg"><path clip-rule="evenodd" d="M6.765.25H3.348C1.498.25 0 1.76 0 3.62v3.447c0 1.859 1.498 3.37 3.348 3.37h3.417c1.85 0 3.348-1.511 3.348-3.37V3.62c0-1.86-1.497-3.37-3.348-3.37zM3.348 1.82h3.417c.98 0 1.778.804 1.778 1.8v3.447c0 .995-.798 1.8-1.778 1.8H3.348a1.79 1.79 0 0 1-1.778-1.8V3.62c0-.996.797-1.8 1.778-1.8zM19.153.25h-3.418c-1.85 0-3.348 1.51-3.348 3.37v3.447c0 1.859 1.498 3.37 3.348 3.37h3.418c1.85 0 3.347-1.511 3.347-3.37V3.62c0-1.86-1.497-3.37-3.347-3.37zm-3.418 1.57h3.418c.98 0 1.777.804 1.777 1.8v3.447c0 .995-.798 1.8-1.777 1.8h-3.418a1.79 1.79 0 0 1-1.778-1.8V3.62c0-.996.797-1.8 1.778-1.8zM3.348 12.563h3.417c1.85 0 3.348 1.51 3.348 3.371v3.446c0 1.86-1.497 3.37-3.348 3.37H3.348C1.498 22.75 0 21.24 0 19.38v-3.446c0-1.86 1.497-3.371 3.348-3.371zm3.417 1.57H3.348a1.79 1.79 0 0 0-1.778 1.801v3.446c0 .996.797 1.8 1.778 1.8h3.417a1.79 1.79 0 0 0 1.778-1.8v-3.446a1.79 1.79 0 0 0-1.778-1.801zm12.388-1.57h-3.418c-1.85 0-3.348 1.51-3.348 3.371v3.446c0 1.86 1.497 3.37 3.348 3.37h3.418c1.85 0 3.347-1.51 3.347-3.37v-3.446c0-1.86-1.497-3.371-3.347-3.371zm-3.418 1.57h3.418c.98 0 1.777.804 1.777 1.801v3.446c0 .996-.797 1.8-1.777 1.8h-3.418a1.79 1.79 0 0 1-1.778-1.8v-3.446a1.79 1.79 0 0 1 1.778-1.801z"/></svg>
